!!!ONB: MCCC : IJH0430_01 : Extracted Monophonic Melody
!!!COM: Haydn, Joseph
!!!OPR: String Quartet in D major
!!!OMV: 1
!!!SCT: Hob.III:49 ; Op.50 No.6
!!!ODT: 1787///
**kern
*thru
*k[f#c#]
*D:
*clefG
*M4/4
2.ee
16dd
16cc#
16b
16a
=1
2.g
4f#
=2
4.e
16g
16b
4d
4c#
=3
1d
=4
8c#
8a
2a
16a
16f#
16g
16e
=5
1f#
=6
8e
8b
2b
16a
16f#
16g
16e
=7
16f#
16d
16e
16f#
16g
16a
16b
16cc#
16dd
16ee
16ff#
16gg
16aa
16bb
16ccc#
16ddd
=8
8bb
16aa
16bb
4aa
2r
=9
8gg
16ff#
16gg
4ff#
2r
=10
1e
=11
1e[
=12
8e]
4e
4e
4e
8e
=13
16e
16f
16e
16f
16e
16f
16e
16f
16e
16f
16e
16f
16e
16f
16e
16f
=14
4.e
8f#
8a
8g
8f#
8e
=15
4d
2.r
=16
1r
=17
2.eee
16ddd
16ccc#
16bb
16aa
=18
3..gg[
24gg]
8ff#
8ddd
8ff#
=19
8dd#
8ee
8r
8ee
8r
8ccc#
8aa
8ff#
=20
8ee
8dd#
8r
8dd
8r
16bb
16aa
16gg#
16ff#
16ee
16dd
=21
3..cc#[
24cc#]
4b
8a
=22
16g#
16e
16g#
16b
16ee
16gg#
16bb
16gg#
16aa
16gg#
16ff#
16ee
16dd#
16cc#
16b
16a
=23
16g#
16e
16g#
16b
16ee
16gg#
16bb
16gg#
16aa
16gg#
16ff#
16ee
16dd#
16cc#
16b
16a
=24
16g#
16e
16g#
16a
16b
16ee
16g#
16a
16b
16ee
16a
16b
16cc#
16e
16b
16cc#
=25
2.dd
8dd
16cc
16b
=26
2a
2g#
=27
1r
=28
2.bb
8gg#
16ff#
16ee
=29
16aa
16ee
16aa
16ccc#
8eee
8eee
4eee
8ddd
16ccc#
16ddd
=30
16ccc#
16ee
16aa
16ccc#
8eee
8eee
4eee
8ddd
16ccc#
16ddd
=31
8ccc#
8ccc#
8bb
16aa
16bb
8aa
8aa
8gg
16ff#
16gg
=32
8ff#
8ff#
8ee
16dd
16ee
8dd
8dd
8cc#
16b
16cc#
=33
16cc#
16b
16a#
16b
16cc#
16b
16dd
16cc#
16ee
16dd
16ff#
16ee
16gg
16ff#
16ee
16dd
=34
16cc#
16b
16a#
16b
16cc#
16b
16dd
16cc#
16ee
16dd
16ff#
16ee
16gg
16ff#
16ee
16dd
=35
16cc#
16b
16a#
16b
8ff#
16ee
16dd
8dd
16cc#
16b
8dd
16cc#
16b
=36
2a
2b
=37
1a
=38
2.b-
16a
16g
16f
16e
=39
4cc
16b-
16a
16g
16f
4b-
16a
16g
16f
16e
=40
4cc
16b-
16a
16g
16f
4aa
8ff
16ee
16ff
=41
4ccc
16bb
16ccc
16ddd
16ccc
4fff
4fff
=42
2fff
4d#
4d#
=43
2d#[
2d#]
=44
16e
16g#
16a
16g#
16a
16b#
16cc#
16cc
16cc#
16dd#
16ee
16dd#
16ee
16gg#
16aa
16gg#
=45
16aa
16bb#
16ccc#
16bb#
16ccc#
16ddd#
16eee
16ddd#
16eee
16ddd#
16eee
16ddd#
8.eee
16aa
=46
1bb
=47
1aa[
=48
4.aa]
8ddd
8ccc#
8ddd
8bb
8gg#
=49
8bb
8aa
2aa
4aa[
=50
4.aa]
8dd
8cc#
8dd
8b
8g#
=51
8a
16g#
16r
8b
16a
16r
8cc#
16b
16r
12dd
12b
12g#
=52
8a
16g#
16r
8b
16a
16r
8cc#
16b
16r
12dd
12b
12g#
=53
8a
16g#
16r
8b
16a
16r
8cc#
16b
16r
8dd
16cc#
16r
=54
2.ee
16dd
16cc#
16b
16a
=55
2.g
4f#
=56
4.e
16f#
16e
4d
4c#
=57
1B
=58
1c
=59
2.dd
8dd
16cc
16b
=60
2a
2g#
=61
2.ddd
16ccc#
16bb
16aa
16gg#
=62
1aa[
=63
8aa]
8aa
8gg#
8aa
8gg#
8aa
8bb
8aa
=64
1gg#
=65
1gg#[
=66
1gg#]
=67
4..gg#
16aa
16gg#
16aa
16gg#
16aa
16gg#
16aa
16gg#
16aa
=68
3..gg#[
24gg#]
8aa
16bb
16ccc#
16bb
16aa
=69
3..gg#[
24gg#]
8aa
16bb
16ccc#
16bb
16aa
=70
4.gg#
8aa
8gg#
8aa
8gg#
8aa
=71
4gg#
2.r
=72
16aa
16ff#
16ee#
16ff#
16ff#
16cc#
16b
16cc#
16a
16b
16g#
16a
16f#
16cc#
16ff#
16aa
=73
16bb
16gg#
16ff#
16gg#
16gg#
16b
16a
16b
16g#
16a
16f#
16g#
16e#
16cc#
16gg#
16bb
=74
16aa
16ff#
16ee#
16ff#
16ff#
16cc#
16b
16cc#
16a
16b
16g#
16a
16f#
16cc#
16ff#
16aa
=75
16bb
16gg#
16ff#
16gg#
16gg#
16b
16a
16b
16g#
16a
16f#
16g#
16e#
16cc#
16gg#
16bb
=76
16aa
16ff#
16ee#
16ff#
16ff#
16cc#
16b#
16cc#
16aa
16ff#
16ee#
16ff#
16ff#
16dd
16cc#
16dd
=77
16gg
16aa
16ff#
16gg
16ee
16ff#
16dd
16ee
16cc#
16dd
16b
16cc#
16a
16b
16g
16a
=78
16f#
16d
16e
16f#
16g
16a
16b
16cc#
16dd
16ee
16ff#
16gg
16aa
16bb
16ccc#
16ddd
=79
8bb
16aa#
16bb
8gg
16ff#
16gg
8ee
16dd#
16ee
8dd
16cc#
16dd
=80
16cc#
16a
16b
16cc#
16dd
16ee
16ff#
16gg#
16aa
16gg#
16aa
16gg#
16aa
16gg#
16aa
16gg#
=81
1aa[
=82
1aa]
=83
8aa
4aa
4aa
4aa
8aa
=84
3..aa[
24aa]
8bb-
16ccc
16ddd
16ccc
16bb-
=85
3..aa[
24aa]
8bb-
16ccc
16ddd
16ccc
16bb-
=86
8aa
8bb-
16ccc
16ddd
16ccc
16bb-
8aa
8bb-
16ccc
16bb-
16ccc
16aa
=87
2.gg
8gg
16ff
16ee
=88
2dd
2cc#
=89
8r
8aa
8gg#
8aa
4bb-
4r
=90
8r
8aa
8gg#
8aa
4bb-
4gg
=91
2gg
2ff#
=92
2.ccc
8ccc
16bb-
16aa
=93
2gg
2ff#
=94
2.ccc
8ccc
16bb-
16aa
=95
8bb-
8bb-
8aa
16gg
16aa
8gg
8gg
8ff#
16ee
16ff#
=96
8gg
8gg
8ff
16ee
16ff
8ee
8ee
8dd
16cc#
16dd
=97
8cc#
16b
16a
16aa
16a
16aa
16a
8cc#
16b
16a
16aa
16a
16aa
16a
=98
8b
16a
16b
16aa
16b
16aa
16b
8cc#
16b
16cc#
16aa
16cc#
16aa
16cc#
=99
8dd
16cc#
16dd
8ee
16dd
16ee
8ff#
16ee
16ff#
8gg
16ff#
16gg
=100
8aa
16gg
16aa
8bb
16aa
16bb
8ccc#
16bb
16ccc#
8ddd
16ccc#
16ddd
=101
2.eee
16ddd
16ccc#
16bb
16aa
=102
2.gg
16ff#
16ee
16dd
16cc#
=103
2.ee
16dd
16cc#
16b
16a
=104
2.g
4f#
=105
4.e
16g
16b
4d
4c#
=106
1d
=107
8c#
8a
2a
16a
16f#
16g
16e
=108
1f#
=109
8e
8b
2b
16a
16f#
16g
16e
=110
16f#
16d
16e
16f#
16g
16a
16b
16cc#
16dd
16ee
16ff#
16gg
16aa
16bb
16ccc#
16ddd
=111
8bb
16aa
16bb
4aa
2r
=112
8gg
16ff#
16gg
4ff#
2r
=113
1e
=114
1e[
=115
8e]
4e
4e
4e
8e
=116
16e
16f
16e
16f
16e
16f
16e
16f
16e
16f
16e
16f
16e
16f
16e
16f
=117
16e
16A
16c#
16e
16a
16e
16a
16cc#
16ee
16a
16cc#
16ee
16aa
16ee
16cc#
16a
=118
16g#
16e
16g#
16b
16dd
16b
16dd
16gg#
16bb
16aa
16gg#
16ff#
16ee
16dd
16cc#
16b
=119
16cc#
16a
16cc#
16ee
16aa
16ee
16aa
16ccc#
8eee
8ccc#
8aa
8gg
=120
16ff#
16d
16e
16f#
16g
16a
16b
16cc#
16dd
16ee
16ff#
16gg
16aa
16bb
16ccc#
16ddd
=121
1ccc#
=122
16ddd
16d
16e
16f#
16g
16a
16b
16cc#
16dd
16ee
16ff#
16gg
16aa
16bb
16ccc#
16ddd
=123
8bb
16aa#
16bb
8aa
16gg#
16aa
8gg
16ff#
16gg
8ff#
16ee
16ff#
=124
16ff#
16ee
16dd#
16ee
16ff#
16ee
16gg
16ff#
16aa
16gg
16bb
16aa
16ccc
16bb
16aa
16gg
=125
16ff#
16ee
16dd#
16ee
16ff#
16ee
16gg
16ff#
16aa
16gg
16bb
16aa
16ccc
16bb
16aa
16gg
=126
16ff#
16ee
16dd#
16ee
8bb
16aa
16gg
8gg
16ff#
16ee
8gg
16ff#
16ee
=127
2dd
2ee
=128
1dd
=129
2.ee-
16dd
16cc
16b-
16a
=130
4ff
16ee-
16dd
16cc
16b-
4ee-
16dd
16cc
16b-
16a
=131
4ff
16ee-
16dd
16cc
16b-
4bb-
16aa
16bb-
16ccc
16bb-
=132
4ddd
16ccc#
16ddd
16eee-
16ddd
8fff
8ddd
8bb-
8ff
=133
8dd
8b-
8f
8d
4B-
4A
=134
1G#
=135
16A
16c#
16d
16c#
16d
16e#
16f#
16e#
16f#
16g#
16a
16g#
16a
16cc#
16dd
16cc#
=136
16dd
16ee#
16ff#
16ee#
16ff#
16gg#
16aa
16gg#
16aa
16ccc#
16ddd
16ccc#
16ddd
16aa
16ff#
16dd
=137
1ee
=138
1dd[
=139
4.dd]
8gg
8ff#
8gg
8ee
8cc#
=140
8ee
8dd
2dd
4dd[
=141
4.dd]
8gg
8ff#
8gg
8ee
8cc#
=142
8dd
16cc#
16r
8ee
16dd
16r
8ff#
16ee
16r
12gg
12ee
12cc#
=143
8dd
16cc#
16r
8ee
16dd
16r
8ff#
16ee
16r
12gg
12ee
12cc#
=144
12aa
12ff#
12dd
12bb
12gg
12dd
12aa
12ff#
12dd
12bb
12gg
12dd
=145
12aa
12ff#
12dd
12bb
12gg
12ee
12aa
12ff#
12dd
12gg
12ee
12cc#
=146
1dd
=147
1dd[
=148
1dd]
=149
1e
=150
3..d[
24d]
8c#
8b-
8c#
=151
3..d[
24d]
8c#
8b-
8c#
=152
4d
4r
4d
4d
=153
4d
2.r
==
*-
